packages/foundations/assets/icons/functional/images/social/heart_filled.svg

<svg xmlns="http://www.w3.org/2000/svg" width="32" height="32" fill="none"><path fill="#1A1C1F" fill-rule="evenodd" d="M8.766 4.168c-1.271.087-2.565.565-3.699 1.367-.505.356-1.42 1.301-1.768 1.825-.869 1.309-1.287 2.677-1.287 4.213 0 1.677.477 3.105 1.503 4.501.251.342 11.805 11.582 12.024 11.697.228.121.654.114.895-.014.194-.104 11.529-11.116 11.891-11.553 1.895-2.288 2.208-5.553.786-8.204-.924-1.724-2.733-3.146-4.604-3.62-.686-.174-1.126-.226-1.893-.226-1.1 0-1.903.151-2.862.541-1.027.417-1.684.886-2.921 2.085l-.889.862-.944-.932c-1.037-1.023-1.462-1.351-2.305-1.775-1.237-.623-2.484-.866-3.927-.767"/></svg>

<svg width="32" height="32" viewBox="0 0 32 32" fill="none" xmlns="http://www.w3.org/2000/svg"><path d="M8.766 4.168 C 7.495 4.255,6.201 4.733,5.067 5.535 C 4.562 5.891,3.647 6.836,3.299 7.360 C 2.430 8.669,2.012 10.037,2.012 11.573 C 2.012 13.250,2.489 14.678,3.515 16.074 C 3.766 16.416,15.320 27.656,15.539 27.771 C 15.767 27.892,16.193 27.885,16.434 27.757 C 16.628 27.653,27.963 16.641,28.325 16.204 C 30.220 13.916,30.533 10.651,29.111 8.000 C 28.187 6.276,26.378 4.854,24.507 4.380 C 23.821 4.206,23.381 4.154,22.614 4.154 C 21.514 4.154,20.711 4.305,19.752 4.695 C 18.725 5.112,18.068 5.581,16.831 6.780 L 15.942 7.642 14.998 6.710 C 13.961 5.687,13.536 5.359,12.693 4.935 C 11.456 4.312,10.209 4.069,8.766 4.168 " fill="#1A1C1F" stroke="none" fill-rule="evenodd"></path></svg>
